openmetadata-ui/src/main/resources/ui/src/assets/svg/icon-edit-primary.svg

<svg width="16" height="16" viewBox="0 0 16 16" fill="none" xmlns="http://www.w3.org/2000/svg">
<path d="M13.0465 6.70756C12.7823 6.70756 12.568 6.92179 12.568 7.18605V13.8372C12.568 14.2402 12.2402 14.568 11.8372 14.568H2.16279C1.75984 14.568 1.43198 14.2402 1.43198 13.8372V4.16279C1.43198 3.75984 1.75984 3.43198 2.16279 3.43198H8.81395C9.07821 3.43198 9.29244 3.21774 9.29244 2.95349C9.29244 2.68923 9.07821 2.475 8.81395 2.475H2.16279C1.23212 2.475 0.475 3.23212 0.475 4.16279V13.8372C0.475 14.7679 1.23212 15.525 2.16279 15.525H11.8372C12.7679 15.525 13.525 14.7679 13.525 13.8372V7.18605C13.525 6.92179 13.3108 6.70756 13.0465 6.70756Z" fill="#7147E8" stroke="#7147E8" stroke-width="0.05"/>
<path d="M15.1809 1.70377L14.297 0.819838C13.8706 0.393387 13.1767 0.393387 12.7502 0.819838L5.67892 7.89112C5.61348 7.95656 5.56888 8.03991 5.55069 8.13066L5.10871 10.3404C5.07799 10.4941 5.12609 10.653 5.23693 10.7638C5.32572 10.8526 5.44532 10.9012 5.56838 10.9012C5.59898 10.9012 5.62973 10.8982 5.66029 10.8921L7.87008 10.4501C7.96083 10.4319 8.04418 10.3873 8.10962 10.3219L15.1809 3.2506C15.1809 3.2506 15.181 3.2506 15.181 3.25057C15.6074 2.82415 15.6074 2.13025 15.1809 1.70377ZM7.54707 9.55858L6.16596 9.83484L6.44222 8.45373L12.1977 2.69815L13.3026 3.80306L7.54707 9.55858ZM14.518 2.58767L13.9656 3.14013L12.8606 2.03522L13.4131 1.4828C13.474 1.42186 13.5731 1.42183 13.6341 1.48277L14.518 2.3667C14.5789 2.42761 14.5789 2.52677 14.518 2.58767Z" fill="#7147E8"/>
</svg>

<svg xmlns="http://www.w3.org/2000/svg" width="16" height="16" fill="none"><path fill="#7147E8" stroke="#7147E8" stroke-width=".05" d="M13.046 6.708a.479.479 0 0 0-.478.478v6.651c0 .403-.328.731-.73.731H2.162a.732.732 0 0 1-.731-.73V4.162c0-.403.328-.731.73-.731h6.652a.478.478 0 0 0 0-.957H2.163A1.69 1.69 0 0 0 .475 4.163v9.674c0 .93.757 1.688 1.688 1.688h9.674a1.69 1.69 0 0 0 1.688-1.688v-6.65a.478.478 0 0 0-.479-.48Z"/><path fill="#7147E8" d="M15.18 1.704 14.298.82a1.095 1.095 0 0 0-1.547 0L5.68 7.89a.47.47 0 0 0-.128.24l-.442 2.21a.469.469 0 0 0 .551.551l2.21-.442a.47.47 0 0 0 .24-.128l7.07-7.071h.001a1.095 1.095 0 0 0 0-1.547ZM7.548 9.559l-1.381.276.276-1.381 5.756-5.756 1.105 1.105L7.547 9.56Zm6.971-6.971-.552.552-1.105-1.105.552-.552c.061-.061.16-.061.221 0l.884.884c.06.06.06.16 0 .22Z"/></svg>
